X: 1
T: Saint Albans Caledonian Society
C: Chris Walker
R: reel
Z: 2005 John Chambers <jc:trillian.mit.edu>
B: RSCDS 45-1
M: C|
L: 1/8
K: D
|:"A7"AG \
| "D"FEFA D2AF | "G"GFGA BABc | "D"dcdf "E7"edcB | "A7"c2A2 A2AG \
| "D"FEFA "D7/C"D2A2 | "G/B"GFGA BdcB | "D"Afed "A7"cBAG | "D"F2D2 D2 :|
de \
| "D"fafd "A7/E"gecA | "D/F#"defd "D"A2dc | "Em"B^def gfe=d | "A7"c2A2 A2de \
| "D"fafd "A7/C#"gecA | "Bm"defd "E(m)"B2ed | "A"cfed "A7"cBAG | "D"F2D2 D2 |]
de \
| "D"fafd "A7/E"gecA | "D/F#"defd "D"A2dc | "Em"B^def "E7"gfe=d | "A7"c2A2 A2AG \
| "D"FEFA "D7/C"D2AF | "G/B"GFGA "G#dim"BdcB | "D"Afed "A7"cBAG | "D"F2D2 D2 |]
